icons/mobile/24/svg/tab-group-close-24.svg

<svg width="24" height="24" viewBox="0 0 24 24" fill="none" xmlns="http://www.w3.org/2000/svg">
<path d="M11.5059 11.2558C11.8476 10.9142 12.4024 10.9142 12.7441 11.2558C13.0858 11.5975 13.0858 12.1524 12.7441 12.4941L11.2383 13.9999L12.7441 15.5058C13.0858 15.8475 13.0858 16.4024 12.7441 16.7441C12.4024 17.0858 11.8476 17.0858 11.5059 16.7441L10 15.2382L8.49414 16.7441C8.15243 17.0858 7.59757 17.0858 7.25586 16.7441C6.91421 16.4024 6.91417 15.8475 7.25586 15.5058L8.76172 13.9999L7.25586 12.4941C6.91421 12.1524 6.91417 11.5975 7.25586 11.2558C7.59755 10.9142 8.15245 10.9142 8.49414 11.2558L10 12.7617L11.5059 11.2558Z" fill="black"/>
<path fill-rule="evenodd" clip-rule="evenodd" d="M10 6.00092C11.6468 6.00092 13.1281 6.15583 14.4053 6.37299C15.9126 6.62932 16.9999 7.93726 17 9.456V18.5449C17 20.0636 15.9126 21.3715 14.4053 21.6279C13.1281 21.845 11.6468 21.9999 10 21.9999C8.35318 21.9999 6.87194 21.845 5.59473 21.6279C4.08736 21.3715 3 20.0636 3 18.5449V9.45404C3.00006 7.90832 4.13037 6.62019 5.63086 6.36713C7.30534 6.0848 8.79065 6.00092 10 6.00092ZM10 7.75092C8.87154 7.75092 7.48509 7.82915 5.92188 8.09272C5.24044 8.20764 4.75006 8.78587 4.75 9.45404V18.5449C4.75 19.2201 5.23109 19.7906 5.8877 19.9023C7.08037 20.1051 8.46302 20.2499 10 20.2499C11.537 20.2499 12.9196 20.1051 14.1123 19.9023C14.7689 19.7906 15.25 19.2201 15.25 18.5449V9.456C15.2499 8.78083 14.7689 8.21023 14.1123 8.09857C12.9196 7.89577 11.537 7.75092 10 7.75092Z" fill="black"/>
<path d="M9.62988 2.3642C12.5169 1.8772 15.5113 1.87806 18.4053 2.37006C19.9091 2.62618 20.999 3.92316 20.999 5.45404V14.5439C20.999 15.9539 20.069 17.154 18.749 17.5371V15.5839C19.049 15.3299 19.249 14.9648 19.249 14.5439V5.45404C19.249 4.77915 18.7702 4.20775 18.1113 4.09564C16.7563 3.86465 15.372 3.74799 13.999 3.74799C12.636 3.74799 11.2629 3.86279 9.91992 4.08979C9.73993 4.11979 9.57573 4.18733 9.42773 4.27533C8.67682 4.29034 7.92753 4.33315 7.18262 4.40814C7.5546 3.36118 8.46994 2.56023 9.62988 2.3642Z" fill="black"/>
</svg>

<!-- This Source Code Form is subject to the terms of the Mozilla Public
   - License, v. 2.0. If a copy of the MPL was not distributed with this
   - file, You can obtain one at http://mozilla.org/MPL/2.0/. -->
<svg xmlns="http://www.w3.org/2000/svg" width="24" height="24" fill="none" viewBox="0 0 24 24">
    <path fill="#000" d="M11.506 11.256a.876.876 0 0 1 1.238 1.238L11.238 14l1.506 1.506a.876.876 0 0 1-1.238 1.238L10 15.238l-1.506 1.506a.876.876 0 0 1-1.238-1.238L8.762 14l-1.506-1.506a.876.876 0 0 1 1.238-1.238L10 12.762z" />
    <path fill="#000" fill-rule="evenodd" d="M10 6c1.647 0 3.128.156 4.405.373A3.12 3.12 0 0 1 17 9.456v9.089a3.12 3.12 0 0 1-2.595 3.083 26.3 26.3 0 0 1-8.81 0A3.12 3.12 0 0 1 3 18.545V9.454C3 7.908 4.13 6.62 5.63 6.367A26.3 26.3 0 0 1 10 6.001m0 1.75c-1.128 0-2.515.08-4.078.343a1.39 1.39 0 0 0-1.172 1.36v9.09a1.37 1.37 0 0 0 1.138 1.358 24.5 24.5 0 0 0 8.224 0 1.37 1.37 0 0 0 1.138-1.357V9.456a1.37 1.37 0 0 0-1.138-1.357A24.5 24.5 0 0 0 10 7.75" clip-rule="evenodd" />
    <path fill="#000" d="M9.63 2.364a26.4 26.4 0 0 1 8.775.006A3.115 3.115 0 0 1 21 5.454v9.09c0 1.41-.93 2.61-2.25 2.993v-1.953c.3-.254.5-.62.5-1.04v-9.09a1.37 1.37 0 0 0-1.138-1.358A24.6 24.6 0 0 0 9.92 4.09c-.18.03-.344.097-.492.185q-1.127.021-2.245.133A3.14 3.14 0 0 1 9.63 2.364" />
</svg>
